X:1460
T:Frisch auf ins weite Field
C:anon.
O:Germany
A:Schlesien
Z:Transcribed by Frank Nordberg - http://www.musicaviva.com
F:http://abc.musicaviva.com/tunes/germany/frisch-auf-ins-weite.abc
M:C
L:1/4
K:G
B|GDGA|B2 z G/A/|B>BBd|cBAG|
w:Frisch auf ins wei-te Feld! Zu_ Was-ser und zu Lan--de hab
w:Ein wohl-ge-reis-ter Mann, der in der Welt ge-we-sen ist, der
cBAG|A2 z A|AABG|(F>G)AA|
w:ich mein Sinn ge-stellt, zu rei-sen und zu wan--dern von
w:et-was wei\ss und kann, von dem ist viel zu hal--ten bei
AABG|(F>G)AB|cABA|G2 z|]
w:ei-ner Stadt zur an--dern, so lang es Gott ge-f\"allt.
w:Jun-gen und bei Al--ten, ich selbst halt viel da-von
W:
W:Frisch auf ins weite Feld!
W:Zu Wasser und zu Lande
W:hab ich mein Sinn gestellt,
W:zu reisen und zu wandern
W:von einer Stadt zur andern,
W:so lang es Gott gef\"allt.
W:
W:Ein wohlgereister Mann,
W:der in der Welt gewesen ist,
W:der etwas wei\ss und kann,
W:von dem ist viel zu halten
W:bei Jungen und bei Alten,
W:ich selbst halt viel davon
W:
W:
W:  From Musica Viva - http://www.musicaviva.com
W:  the Internet center for free sheet music downloads.


